src/assets/img/stamp/Button.svg

<svg width="305" height="48" viewBox="0 0 305 48" fill="none" xmlns="http://www.w3.org/2000/svg">
<rect width="305" height="48" rx="10" fill="#5C4795"/>
<path d="M72.0578 21.2656C72.0578 22.3281 71.8911 23.3542 71.5578 24.3438C71.2297 25.3281 70.7609 26.2057 70.1516 26.9766C69.5422 27.7422 68.8313 28.3177 68.0188 28.7031L67.0109 27.3359C67.7349 26.9974 68.3729 26.5052 68.925 25.8594C69.4771 25.2135 69.9016 24.4922 70.1984 23.6953C70.4953 22.8932 70.6438 22.0833 70.6438 21.2656V19.4062H72.0578V21.2656ZM72.4094 21.2656C72.4094 22.0521 72.5552 22.8229 72.8469 23.5781C73.1438 24.3333 73.5656 25.013 74.1125 25.6172C74.6646 26.2161 75.3078 26.6719 76.0422 26.9844L75.0969 28.3516C74.2635 27.9818 73.5396 27.4375 72.925 26.7188C72.3104 26 71.8417 25.1719 71.5188 24.2344C71.1958 23.2917 71.0344 22.3021 71.0344 21.2656V19.4062H72.4094V21.2656ZM75.5031 20.0859H67.5422V18.6641H75.5031V20.0859ZM78.8313 31.375H77.0734V17.2656H78.8313V31.375ZM91.9781 25.0703H82.0719V23.6875H91.9781V25.0703ZM93.4234 29.7188H80.5172V28.2891H93.4234V29.7188ZM87.7906 28.7812H86.0797V24.3125H87.7906V28.7812ZM91.8609 19.7109H83.8141V24.3203H82.0719V18.3203H91.8609V19.7109ZM102.141 23.9844H99.6563V22.5859H102.141V23.9844ZM106.125 31.375H104.453V17.2656H106.125V31.375ZM103.219 30.7109H101.57V17.5078H103.219V30.7109ZM97.1328 18.3359C97.7578 18.3359 98.3021 18.5391 98.7656 18.9453C99.2292 19.3516 99.5885 19.9349 99.8438 20.6953C100.099 21.4557 100.227 22.349 100.227 23.375C100.227 24.3958 100.099 25.2891 99.8438 26.0547C99.5885 26.8151 99.2292 27.401 98.7656 27.8125C98.3021 28.224 97.7578 28.4297 97.1328 28.4297C96.5182 28.4297 95.9792 28.224 95.5156 27.8125C95.0573 27.401 94.7005 26.8151 94.4453 26.0547C94.1953 25.2891 94.0703 24.3958 94.0703 23.375C94.0703 22.3438 94.1953 21.4505 94.4453 20.6953C94.7005 19.9349 95.0599 19.3516 95.5234 18.9453C95.987 18.5391 96.5234 18.3359 97.1328 18.3359ZM97.1328 19.9766C96.8307 19.9766 96.5703 20.1068 96.3516 20.3672C96.1328 20.6276 95.9661 21.013 95.8516 21.5234C95.7422 22.0286 95.6875 22.6458 95.6875 23.375C95.6875 24.099 95.7422 24.7161 95.8516 25.2266C95.9661 25.7318 96.1328 26.1146 96.3516 26.375C96.5755 26.6354 96.8359 26.7656 97.1328 26.7656C97.4401 26.7656 97.7031 26.6354 97.9219 26.375C98.1458 26.1146 98.3177 25.7318 98.4375 25.2266C98.5573 24.7161 98.6172 24.099 98.6172 23.375C98.6172 22.6458 98.5573 22.0286 98.4375 21.5234C98.3177 21.013 98.1458 20.6276 97.9219 20.3672C97.7031 20.1068 97.4401 19.9766 97.1328 19.9766ZM118.35 23.2344H114.522V21.8359H118.35V23.2344ZM112.233 20.6562C112.233 21.8021 112.082 22.8932 111.78 23.9297C111.478 24.9609 111.032 25.875 110.444 26.6719C109.855 27.4688 109.149 28.0781 108.327 28.5L107.225 27.0859C107.975 26.737 108.621 26.2266 109.163 25.5547C109.704 24.8828 110.116 24.125 110.397 23.2812C110.678 22.4323 110.819 21.5573 110.819 20.6562V18.3984H112.233V20.6562ZM112.584 20.6562C112.584 21.5521 112.72 22.4089 112.991 23.2266C113.267 24.0443 113.668 24.7708 114.194 25.4062C114.725 26.0417 115.355 26.5234 116.084 26.8516L115.038 28.2422C114.215 27.8359 113.514 27.2526 112.936 26.4922C112.363 25.7266 111.928 24.8464 111.631 23.8516C111.334 22.8568 111.186 21.7917 111.186 20.6562V18.3984H112.584V20.6562ZM119.202 31.4141H117.483V17.2656H119.202V31.4141ZM128.823 17.8906C129.532 17.8854 130.167 18.0078 130.73 18.2578C131.292 18.5026 131.73 18.8516 132.042 19.3047C132.355 19.7526 132.511 20.2682 132.511 20.8516C132.511 21.4193 132.355 21.9297 132.042 22.3828C131.73 22.8307 131.292 23.1823 130.73 23.4375C130.167 23.6875 129.532 23.8125 128.823 23.8125C128.115 23.8125 127.482 23.6875 126.925 23.4375C126.373 23.1823 125.938 22.8307 125.62 22.3828C125.303 21.9297 125.144 21.4193 125.144 20.8516C125.144 20.2682 125.303 19.7526 125.62 19.3047C125.938 18.8516 126.373 18.5026 126.925 18.2578C127.482 18.0078 128.115 17.8854 128.823 17.8906ZM128.823 19.2891C128.433 19.2839 128.086 19.3464 127.784 19.4766C127.488 19.6016 127.253 19.7839 127.081 20.0234C126.915 20.2578 126.831 20.5339 126.831 20.8516C126.831 21.1589 126.915 21.4297 127.081 21.6641C127.253 21.8984 127.49 22.0781 127.792 22.2031C128.094 22.3281 128.438 22.3906 128.823 22.3906C129.224 22.3906 129.579 22.3281 129.886 22.2031C130.193 22.0781 130.433 21.8984 130.605 21.6641C130.777 21.4297 130.863 21.1589 130.863 20.8516C130.863 20.5339 130.777 20.2578 130.605 20.0234C130.433 19.7839 130.193 19.6016 129.886 19.4766C129.584 19.3464 129.23 19.2839 128.823 19.2891ZM129.777 30.9609H128.042V25.2812H129.777V30.9609ZM136.011 31.3828H134.292V17.2812H136.011V31.3828ZM124.214 24.7812C125.907 24.7812 127.519 24.7474 129.05 24.6797C130.586 24.612 132.032 24.4766 133.386 24.2734L133.503 25.5547C132.232 25.7995 130.928 25.9661 129.589 26.0547C128.251 26.138 126.753 26.1901 125.097 26.2109C124.909 26.2161 124.691 26.2188 124.441 26.2188L124.214 24.7812ZM149.377 31.375H147.627V17.2656H149.377V31.375ZM142.713 21.75C142.713 22.7552 142.551 23.7214 142.228 24.6484C141.91 25.5755 141.449 26.3958 140.845 27.1094C140.241 27.8229 139.53 28.3594 138.713 28.7188L137.783 27.375C138.512 27.0521 139.142 26.5938 139.673 26C140.21 25.401 140.619 24.7344 140.9 24C141.181 23.2604 141.322 22.5104 141.322 21.75V20.7969H142.713V21.75ZM143.048 21.75C143.048 22.4792 143.192 23.2005 143.478 23.9141C143.765 24.6224 144.181 25.2604 144.728 25.8281C145.275 26.3958 145.916 26.8359 146.65 27.1484L145.705 28.4844C144.887 28.1354 144.173 27.6172 143.564 26.9297C142.96 26.2422 142.494 25.4505 142.166 24.5547C141.838 23.6536 141.673 22.7188 141.673 21.75V20.7969H143.048V21.75ZM146.103 21.0156H138.22V19.625H146.103V21.0156ZM143.041 20.3672H141.306V17.5703H143.041V20.3672ZM159.639 25.7344H157.905V23.7891H159.639V25.7344ZM165.67 26.8359H163.928V17.2812H165.67V26.8359ZM167.577 22.8281H165.03V21.3984H167.577V22.8281ZM154.35 25.1406C155.433 25.1406 156.444 25.1328 157.381 25.1172C158.324 25.0964 159.306 25.0547 160.327 24.9922C161.347 24.9297 162.306 24.8438 163.202 24.7344L163.334 25.9375C162.011 26.1667 160.649 26.3177 159.248 26.3906C157.847 26.4583 156.277 26.4948 154.538 26.5L154.35 25.1406ZM165.67 31.375H163.928V28.7969H156.123V27.4375H165.67V31.375ZM162.819 19.6797H154.709V18.4062H162.819V19.6797ZM158.756 20.0703C159.444 20.0703 160.043 20.1562 160.553 20.3281C161.069 20.4948 161.467 20.737 161.748 21.0547C162.03 21.3672 162.17 21.737 162.17 22.1641C162.17 22.5911 162.03 22.9635 161.748 23.2812C161.467 23.599 161.069 23.8464 160.553 24.0234C160.043 24.1953 159.444 24.2812 158.756 24.2812C158.079 24.2812 157.483 24.1953 156.967 24.0234C156.457 23.8464 156.058 23.599 155.772 23.2812C155.491 22.9635 155.35 22.5911 155.35 22.1641C155.35 21.737 155.491 21.3672 155.772 21.0547C156.058 20.737 156.457 20.4948 156.967 20.3281C157.483 20.1562 158.079 20.0703 158.756 20.0703ZM158.756 21.25C158.392 21.2396 158.079 21.2708 157.819 21.3438C157.564 21.4115 157.366 21.5156 157.225 21.6562C157.084 21.7917 157.014 21.9609 157.014 22.1641C157.014 22.362 157.084 22.5312 157.225 22.6719C157.366 22.8125 157.566 22.9219 157.827 23C158.087 23.0729 158.397 23.1094 158.756 23.1094C159.126 23.1094 159.441 23.0729 159.702 23C159.962 22.9219 160.16 22.8125 160.295 22.6719C160.436 22.5312 160.506 22.362 160.506 22.1641C160.506 21.9609 160.436 21.7917 160.295 21.6562C160.16 21.5156 159.962 21.4115 159.702 21.3438C159.446 21.2708 159.131 21.2396 158.756 21.25ZM159.639 19.0156H157.905V17.1562H159.639V19.0156ZM179.661 27.4844H177.919V17.2812H179.661V27.4844ZM180.059 31.125H170.317V29.7031H180.059V31.125ZM172.067 30.2578H170.317V26.4531H172.067V30.2578ZM171.966 18.2031C172.679 18.2031 173.325 18.3542 173.903 18.6562C174.486 18.9583 174.942 19.3776 175.27 19.9141C175.604 20.4505 175.77 21.0547 175.77 21.7266C175.77 22.4141 175.604 23.0286 175.27 23.5703C174.942 24.1068 174.486 24.526 173.903 24.8281C173.325 25.1302 172.679 25.2812 171.966 25.2812C171.252 25.2812 170.606 25.1302 170.028 24.8281C169.455 24.526 168.999 24.1068 168.661 23.5703C168.328 23.0286 168.161 22.4141 168.161 21.7266C168.161 21.0547 168.328 20.4505 168.661 19.9141C168.999 19.3776 169.455 18.9583 170.028 18.6562C170.606 18.3542 171.252 18.2031 171.966 18.2031ZM171.966 19.7266C171.565 19.7214 171.203 19.8021 170.88 19.9688C170.562 20.1302 170.312 20.3646 170.13 20.6719C169.947 20.9792 169.856 21.3307 169.856 21.7266C169.856 22.1328 169.947 22.4922 170.13 22.8047C170.312 23.112 170.562 23.349 170.88 23.5156C171.203 23.6771 171.565 23.7578 171.966 23.7578C172.361 23.7578 172.718 23.6771 173.036 23.5156C173.354 23.349 173.601 23.112 173.778 22.8047C173.96 22.4922 174.052 22.1328 174.052 21.7266C174.052 21.3307 173.96 20.9792 173.778 20.6719C173.601 20.3646 173.354 20.1302 173.036 19.9688C172.718 19.8021 172.361 19.7214 171.966 19.7266ZM192.394 31.375H190.675V17.2656H192.394V31.375ZM194.573 24.3281H192.003V22.8984H194.573V24.3281ZM189.581 20.8281H181.261V19.4297H189.581V20.8281ZM185.464 21.7422C186.146 21.7422 186.756 21.8854 187.292 22.1719C187.834 22.4531 188.258 22.8464 188.566 23.3516C188.873 23.8568 189.027 24.4297 189.027 25.0703C189.027 25.7057 188.873 26.2786 188.566 26.7891C188.258 27.2943 187.834 27.6875 187.292 27.9688C186.756 28.25 186.146 28.3906 185.464 28.3906C184.787 28.3906 184.178 28.25 183.636 27.9688C183.094 27.6875 182.67 27.2943 182.363 26.7891C182.06 26.2786 181.909 25.7057 181.909 25.0703C181.909 24.4297 182.06 23.8568 182.363 23.3516C182.67 22.8464 183.094 22.4531 183.636 22.1719C184.178 21.8854 184.787 21.7422 185.464 21.7422ZM185.464 23.1719C185.105 23.1719 184.779 23.25 184.488 23.4062C184.201 23.5625 183.974 23.7839 183.808 24.0703C183.646 24.3568 183.566 24.6901 183.566 25.0703C183.566 25.4453 183.646 25.776 183.808 26.0625C183.974 26.349 184.201 26.5703 184.488 26.7266C184.779 26.8776 185.105 26.9531 185.464 26.9531C185.834 26.9531 186.162 26.8776 186.448 26.7266C186.735 26.5703 186.959 26.349 187.12 26.0625C187.282 25.776 187.363 25.4453 187.363 25.0703C187.363 24.6901 187.282 24.3568 187.12 24.0703C186.959 23.7839 186.735 23.5625 186.448 23.4062C186.162 23.25 185.834 23.1719 185.464 23.1719ZM186.323 19.9922H184.597V17.4688H186.323V19.9922ZM206.58 31.4141H204.853V17.2656H206.58V31.4141ZM205.228 23.8984H202.423V22.4688H205.228V23.8984ZM196.408 26.6406C197.772 26.6406 198.921 26.6146 199.853 26.5625C200.785 26.5052 201.731 26.3932 202.689 26.2266L202.822 27.6484C201.843 27.8203 200.864 27.9375 199.884 28C198.91 28.0573 197.752 28.0885 196.408 28.0938H195.275V26.6406H196.408ZM201.611 23.6719H197.002V27.1016H195.275V22.2734H199.916V19.9062H195.228V18.4922H201.611V23.6719ZM222.663 31.3672H220.928V17.2656H222.663V31.3672ZM224.756 24.2266H222.217V22.7891H224.756V24.2266ZM218.936 18.7422C218.936 20.1797 218.72 21.5182 218.288 22.7578C217.86 23.9922 217.17 25.1276 216.217 26.1641C215.264 27.1953 214.03 28.0885 212.514 28.8438L211.538 27.5C212.814 26.8542 213.871 26.1172 214.709 25.2891C215.553 24.4609 216.183 23.5312 216.6 22.5C217.017 21.4635 217.225 20.3125 217.225 19.0469V18.7422H218.936ZM218.108 20.1719H212.272V18.7422H218.108V20.1719ZM236.825 31.375H235.067V17.2656H236.825V31.375ZM232.614 18.7656C232.614 20.2396 232.401 21.5911 231.973 22.8203C231.552 24.0443 230.856 25.1719 229.887 26.2031C228.919 27.2292 227.635 28.1224 226.036 28.8828L225.114 27.4922C226.473 26.8464 227.578 26.112 228.427 25.2891C229.276 24.4661 229.898 23.5417 230.294 22.5156C230.69 21.4896 230.887 20.3385 230.887 19.0625V18.7656H232.614ZM231.669 20.1406H225.833V18.7656H231.669V20.1406Z" fill="white"/>
</svg>

<svg width="305" height="48" fill="none" xmlns="http://www.w3.org/2000/svg"><rect width="305" height="48" rx="10" fill="#5C4795"/><path d="M72.058 21.266a9.58 9.58 0 0 1-.5 3.078 8.583 8.583 0 0 1-1.406 2.633c-.61.765-1.32 1.34-2.133 1.726l-1.008-1.367a5.656 5.656 0 0 0 1.914-1.477 7.141 7.141 0 0 0 1.273-2.164 6.953 6.953 0 0 0 .446-2.43v-1.859h1.414v1.86Zm.351 0c0 .786.146 1.557.438 2.312a6.629 6.629 0 0 0 1.266 2.04 5.562 5.562 0 0 0 1.93 1.366l-.946 1.368a6.074 6.074 0 0 1-2.172-1.633 7.58 7.58 0 0 1-1.406-2.485 9.095 9.095 0 0 1-.485-2.968v-1.86h1.375v1.86Zm3.094-1.18h-7.96v-1.422h7.96v1.422Zm3.328 11.289h-1.758v-14.11h1.758v14.11Zm13.147-6.305h-9.906v-1.383h9.906v1.383Zm1.445 4.649H80.517v-1.43h12.906v1.43Zm-5.632-.938H86.08v-4.468h1.71v4.468Zm4.07-9.07h-8.047v4.61h-1.742v-6h9.789v1.39Zm10.28 4.273h-2.485v-1.398h2.485v1.398Zm3.984 7.391h-1.672v-14.11h1.672v14.11Zm-2.906-.664h-1.649V17.508h1.649V30.71Zm-6.086-12.375c.625 0 1.17.203 1.633.61.463.406.822.989 1.078 1.75.255.76.383 1.653.383 2.679 0 1.02-.128 1.914-.383 2.68-.255.76-.615 1.346-1.078 1.758a2.38 2.38 0 0 1-1.633.617 2.36 2.36 0 0 1-1.617-.617c-.459-.412-.816-.998-1.07-1.758-.25-.766-.376-1.66-.376-2.68 0-1.031.125-1.924.375-2.68.256-.76.615-1.343 1.078-1.75.464-.406 1-.61 1.61-.61Zm0 1.64c-.302 0-.563.13-.781.391-.22.26-.386.646-.5 1.156-.11.506-.165 1.123-.165 1.852 0 .724.055 1.341.165 1.852.114.505.28.888.5 1.148.224.26.484.39.78.39.308 0 .571-.13.79-.39.224-.26.396-.643.516-1.148.12-.51.18-1.128.18-1.852 0-.73-.06-1.346-.18-1.852-.12-.51-.292-.895-.516-1.156-.219-.26-.482-.39-.79-.39Zm21.217 3.258h-3.828v-1.398h3.828v1.398Zm-6.117-2.578c0 1.146-.151 2.237-.453 3.274a8.686 8.686 0 0 1-1.336 2.742c-.589.797-1.295 1.406-2.117 1.828l-1.102-1.414a5.389 5.389 0 0 0 1.938-1.531 7.241 7.241 0 0 0 1.234-2.274 8.3 8.3 0 0 0 .422-2.625v-2.258h1.414v2.258Zm.351 0c0 .896.136 1.753.407 2.57a6.787 6.787 0 0 0 1.203 2.18 5.247 5.247 0 0 0 1.89 1.446l-1.046 1.39a5.894 5.894 0 0 1-2.102-1.75 8.349 8.349 0 0 1-1.305-2.64 11.118 11.118 0 0 1-.445-3.196v-2.258h1.398v2.258Zm6.618 10.758h-1.719V17.266h1.719v14.148Zm9.621-13.523c.709-.006 1.344.117 1.907.367.562.245 1 .594 1.312 1.047.313.448.469.963.469 1.547a2.63 2.63 0 0 1-.469 1.53c-.312.449-.75.8-1.312 1.055-.563.25-1.198.375-1.907.375-.708 0-1.341-.125-1.898-.375-.552-.255-.987-.606-1.305-1.054a2.608 2.608 0 0 1-.476-1.531c0-.584.159-1.1.476-1.547a3.077 3.077 0 0 1 1.305-1.047c.557-.25 1.19-.373 1.898-.367Zm0 1.398a2.519 2.519 0 0 0-1.039.188 1.618 1.618 0 0 0-.703.546c-.166.235-.25.51-.25.829 0 .307.084.578.25.812.172.234.409.414.711.54.302.124.646.187 1.031.187.401 0 .756-.063 1.063-.188.307-.125.547-.305.719-.539.172-.234.258-.505.258-.812 0-.318-.086-.594-.258-.829a1.604 1.604 0 0 0-.719-.546 2.583 2.583 0 0 0-1.063-.188Zm.954 11.672h-1.735v-5.68h1.735v5.68Zm6.234.422h-1.719V17.28h1.719v14.102Zm-11.797-6.602c1.693 0 3.305-.034 4.836-.101a41.616 41.616 0 0 0 4.336-.407l.117 1.282a31.759 31.759 0 0 1-3.914.5 91.364 91.364 0 0 1-4.492.156c-.188.005-.406.008-.656.008l-.227-1.438Zm25.163 6.594h-1.75v-14.11h1.75v14.11Zm-6.664-9.625a8.746 8.746 0 0 1-.485 2.898 7.57 7.57 0 0 1-1.383 2.461 5.864 5.864 0 0 1-2.132 1.61l-.93-1.344a5.49 5.49 0 0 0 1.89-1.375 6.404 6.404 0 0 0 1.649-4.25v-.953h1.391v.953Zm.335 0c0 .73.144 1.45.43 2.164a5.968 5.968 0 0 0 3.172 3.234l-.945 1.336a5.957 5.957 0 0 1-2.141-1.554 7.433 7.433 0 0 1-1.398-2.375 8.137 8.137 0 0 1-.493-2.805v-.953h1.375v.953Zm3.055-.734h-7.883v-1.391h7.883v1.39Zm-3.062-.649h-1.735V17.57h1.735v2.797Zm16.598 5.367h-1.734V23.79h1.734v1.945Zm6.031 1.102h-1.742V17.28h1.742v9.555Zm1.907-4.008h-2.547v-1.43h2.547v1.43Zm-13.227 2.313c1.083 0 2.094-.008 3.031-.024.943-.02 1.925-.062 2.946-.125a48.027 48.027 0 0 0 2.875-.258l.132 1.203a34.39 34.39 0 0 1-4.086.454c-1.401.067-2.971.104-4.71.109l-.188-1.36Zm11.32 6.234h-1.742v-2.578h-7.805v-1.36h9.547v3.938Zm-2.851-11.695h-8.11v-1.274h8.11v1.274Zm-4.063.39c.688 0 1.287.086 1.797.258.516.167.914.409 1.195.727a1.6 1.6 0 0 1 .422 1.11c0 .426-.14.799-.422 1.116-.281.318-.679.565-1.195.742-.51.172-1.109.258-1.797.258-.677 0-1.273-.086-1.789-.258-.51-.177-.909-.424-1.195-.742a1.633 1.633 0 0 1-.422-1.117c0-.427.141-.797.422-1.11.286-.317.685-.56 1.195-.726.516-.172 1.112-.258 1.789-.258Zm0 1.18c-.364-.01-.677.02-.937.094-.255.067-.453.172-.594.312a.675.675 0 0 0-.211.508c0 .198.07.367.211.508.141.14.341.25.602.328.26.073.57.11.929.11.37 0 .685-.037.946-.11.26-.078.458-.188.593-.328a.691.691 0 0 0 .211-.508.675.675 0 0 0-.211-.508c-.135-.14-.333-.244-.593-.312a3.174 3.174 0 0 0-.946-.094Zm.883-2.234h-1.734v-1.86h1.734v1.86Zm20.022 8.468h-1.742V17.281h1.742v10.203Zm.398 3.641h-9.742v-1.422h9.742v1.422Zm-7.992-.867h-1.75v-3.805h1.75v3.805Zm-.101-12.055a4.12 4.12 0 0 1 1.937.453 3.397 3.397 0 0 1 1.867 3.07c0 .688-.166 1.303-.5 1.844a3.397 3.397 0 0 1-1.367 1.258 4.119 4.119 0 0 1-1.937.453c-.714 0-1.36-.15-1.938-.453a3.53 3.53 0 0 1-1.367-1.258c-.333-.541-.5-1.156-.5-1.843 0-.672.167-1.276.5-1.813a3.531 3.531 0 0 1 1.367-1.258c.578-.302 1.224-.453 1.938-.453Zm0 1.524a2.267 2.267 0 0 0-1.086.242 1.804 1.804 0 0 0-.75.703 2.021 2.021 0 0 0-.274 1.055c0 .406.091.765.274 1.078.182.307.432.544.75.71.323.162.685.243 1.086.243.395 0 .752-.08 1.07-.242.318-.167.565-.404.742-.711.182-.313.274-.672.274-1.078a2.03 2.03 0 0 0-.274-1.055 1.755 1.755 0 0 0-.742-.703 2.206 2.206 0 0 0-1.07-.242Zm20.428 11.648h-1.719v-14.11h1.719v14.11Zm2.179-7.047h-2.57v-1.43h2.57v1.43Zm-4.992-3.5h-8.32V19.43h8.32v1.398Zm-4.117.914c.682 0 1.292.143 1.828.43.542.281.966.674 1.274 1.18.307.505.461 1.078.461 1.718a3.27 3.27 0 0 1-.461 1.72 3.169 3.169 0 0 1-1.274 1.179c-.536.281-1.146.422-1.828.422-.677 0-1.286-.141-1.828-.422a3.16 3.16 0 0 1-1.273-1.18 3.303 3.303 0 0 1-.454-1.719c0-.64.151-1.213.454-1.718a3.16 3.16 0 0 1 1.273-1.18c.542-.287 1.151-.43 1.828-.43Zm0 1.43c-.359 0-.685.078-.976.234a1.729 1.729 0 0 0-.68.664c-.162.287-.242.62-.242 1 0 .375.08.706.242.992.166.287.393.508.68.665.291.15.617.226.976.226.37 0 .698-.075.984-.226.287-.157.511-.378.672-.665a1.98 1.98 0 0 0 .243-.992c0-.38-.081-.713-.243-1a1.677 1.677 0 0 0-.672-.664 2.02 2.02 0 0 0-.984-.234Zm.859-3.18h-1.726V17.47h1.726v2.523Zm20.257 11.422h-1.727V17.266h1.727v14.148Zm-1.352-7.516h-2.805v-1.43h2.805v1.43Zm-8.82 2.743c1.364 0 2.513-.026 3.445-.078a25.79 25.79 0 0 0 2.836-.336l.133 1.421c-.979.172-1.958.29-2.938.352-.974.057-2.132.088-3.476.094h-1.133V26.64h1.133Zm5.203-2.97h-4.609v3.43h-1.727v-4.828h4.641v-2.367h-4.688v-1.414h6.383v5.18Zm21.052 7.696h-1.735V17.266h1.735v14.101Zm2.093-7.14h-2.539v-1.438h2.539v1.438Zm-5.82-5.485c0 1.438-.216 2.776-.648 4.016-.428 1.234-1.118 2.37-2.071 3.406-.953 1.031-2.187 1.924-3.703 2.68l-.976-1.344c1.276-.646 2.333-1.383 3.171-2.21a8.185 8.185 0 0 0 1.891-2.79c.417-1.037.625-2.188.625-3.453v-.305h1.711Zm-.828 1.43h-5.836v-1.43h5.836v1.43Zm18.717 11.203h-1.758v-14.11h1.758v14.11Zm-4.211-12.61c0 1.475-.213 2.826-.641 4.055-.421 1.224-1.117 2.352-2.086 3.383-.968 1.026-2.252 1.92-3.851 2.68l-.922-1.39c1.359-.647 2.464-1.381 3.313-2.204.849-.823 1.471-1.747 1.867-2.773.396-1.026.593-2.177.593-3.453v-.297h1.727Zm-.945 1.376h-5.836v-1.375h5.836v1.375Z" fill="#fff"/></svg>
